app/public/logos/dai.svg

<svg xmlns="http://www.w3.org/2000/svg" width="350pt" height="350pt" style="isolation:isolate" viewBox="0 0 350 350"><defs><clipPath id="a"><path d="M0 0h350v350H0z"/></clipPath></defs><g clip-path="url(#a)"><path d="M0 0h350v350H0z" style="fill:#f5ac37"/><path fill="#FEFEFD" d="M177.732 187.385h66.497c1.418 0 2.087 0 2.19-1.859a127 127 0 0 0 0-20.341c0-1.315-.654-1.858-2.079-1.858H111.999c-1.638 0-2.079.543-2.079 2.079v19.467c0 2.512 0 2.512 2.622 2.512zm61.26-46.81a2.13 2.13 0 0 0 0-1.527 43 43 0 0 0-3.953-6.891 55.8 55.8 0 0 0-8.095-10.175 26.9 26.9 0 0 0-5.033-4.922 78.6 78.6 0 0 0-32.815-16.624 81.6 81.6 0 0 0-18.593-1.969h-58.732c-1.638 0-1.859.654-1.859 2.079v38.825c0 1.638 0 2.079 2.079 2.079h126.214s1.095-.221 1.315-.875h-.535zm0 69.561a25.5 25.5 0 0 0-5.591 0H112.109c-1.638 0-2.189 0-2.189 2.189v37.958c0 1.748 0 2.189 2.189 2.189h56c2.677.205 5.355.016 7.977-.543a83.4 83.4 0 0 0 23.744-5.253 43.4 43.4 0 0 0 7.977-3.717h.764a71.05 71.05 0 0 0 30.516-30.72s.764-1.654-.095-2.087zM87.941 272.152v-60.48c0-1.426 0-1.638-1.749-1.638H62.457c-1.315 0-1.859 0-1.859-1.749v-20.782h25.374c1.417 0 1.969 0 1.969-1.858v-20.562c0-1.315 0-1.638-1.749-1.638H62.457c-1.315 0-1.859 0-1.859-1.749V142.45c0-1.205 0-1.528 1.749-1.528h23.515c1.638 0 2.079 0 2.079-2.079V79.89c0-1.748 0-2.189 2.189-2.189h82.027c5.953.236 11.867.89 17.719 1.969a106.9 106.9 0 0 1 34.233 12.686 96.5 96.5 0 0 1 19.246 14.876 105.4 105.4 0 0 1 11.703 14.546 87.7 87.7 0 0 1 8.544 16.734 2.85 2.85 0 0 0 3.268 2.3h19.578c2.512 0 2.512 0 2.622 2.409v17.94c0 1.748-.654 2.189-2.41 2.189h-15.096c-1.528 0-1.969 0-1.859 1.969.599 6.662.599 13.348 0 20.011 0 1.858 0 2.079 2.087 2.079h17.27c.764.984 0 1.968 0 2.961a22 22 0 0 1 0 3.819v13.238c0 1.859-.543 2.41-2.189 2.41h-20.672a2.737 2.737 0 0 0-3.174 2.079 87.5 87.5 0 0 1-22.971 33.469 132 132 0 0 1-11.703 9.403c-4.378 2.52-8.639 5.142-13.128 7.221a118.2 118.2 0 0 1-25.814 8.198 134.6 134.6 0 0 1-25.594 2.079H87.909v-.11z"/></g></svg>

<?xml version="1.0" encoding="UTF-8" standalone="no"?><!-- Generator: Gravit.io --><svg xmlns="http://www.w3.org/2000/svg" xmlns:xlink="http://www.w3.org/1999/xlink" style="isolation:isolate" viewBox="0 0 350 350" width="350pt" height="350pt"><defs><clipPath id="_clipPath_yDwFa5pzpPRHfuvsLhvBCj4Paa3cR6R8"><rect width="350" height="350"/></clipPath></defs><g clip-path="url(#_clipPath_yDwFa5pzpPRHfuvsLhvBCj4Paa3cR6R8)"><rect width="350" height="350" style="fill:rgb(245,172,55)"/><g><path d=" M 177.732 187.385 L 244.229 187.385 C 245.647 187.385 246.316 187.385 246.419 185.526 C 246.962 178.762 246.962 171.958 246.419 165.185 C 246.419 163.87 245.765 163.327 244.34 163.327 L 111.999 163.327 C 110.361 163.327 109.92 163.87 109.92 165.406 L 109.92 184.873 C 109.92 187.385 109.92 187.385 112.542 187.385 L 177.732 187.385 L 177.732 187.385 Z  M 238.992 140.575 C 239.181 140.079 239.181 139.536 238.992 139.048 C 237.882 136.63 236.567 134.323 235.039 132.157 C 232.74 128.456 230.031 125.046 226.944 121.982 C 225.487 120.132 223.801 118.47 221.911 117.06 C 212.446 109.004 201.192 103.303 189.096 100.436 C 182.993 99.066 176.756 98.412 170.503 98.467 L 111.771 98.467 C 110.133 98.467 109.912 99.121 109.912 100.546 L 109.912 139.371 C 109.912 141.009 109.912 141.45 111.991 141.45 L 238.205 141.45 C 238.205 141.45 239.3 141.229 239.52 140.575 L 238.985 140.575 L 238.992 140.575 Z  M 238.992 210.136 C 237.134 209.931 235.26 209.931 233.401 210.136 L 112.109 210.136 C 110.471 210.136 109.92 210.136 109.92 212.325 L 109.92 250.283 C 109.92 252.031 109.92 252.472 112.109 252.472 L 168.109 252.472 C 170.786 252.677 173.464 252.488 176.086 251.929 C 184.213 251.346 192.207 249.582 199.83 246.676 C 202.602 245.716 205.279 244.464 207.807 242.959 L 208.571 242.959 C 221.699 236.132 232.362 225.406 239.087 212.239 C 239.087 212.239 239.851 210.585 238.992 210.152 L 238.992 210.136 Z  M 87.941 272.152 L 87.941 271.499 L 87.941 246.015 L 87.941 237.376 L 87.941 211.672 C 87.941 210.246 87.941 210.034 86.192 210.034 L 62.457 210.034 C 61.142 210.034 60.598 210.034 60.598 208.285 L 60.598 187.503 L 85.972 187.503 C 87.389 187.503 87.941 187.503 87.941 185.645 L 87.941 165.083 C 87.941 163.768 87.941 163.445 86.192 163.445 L 62.457 163.445 C 61.142 163.445 60.598 163.445 60.598 161.696 L 60.598 142.45 C 60.598 141.245 60.598 140.922 62.347 140.922 L 85.862 140.922 C 87.5 140.922 87.941 140.922 87.941 138.843 L 87.941 79.89 C 87.941 78.142 87.941 77.701 90.13 77.701 L 172.157 77.701 C 178.11 77.937 184.024 78.591 189.876 79.67 C 201.932 81.898 213.517 86.206 224.109 92.356 C 231.133 96.491 237.599 101.484 243.355 107.232 C 247.687 111.729 251.593 116.596 255.058 121.778 C 258.499 127.03 261.358 132.645 263.602 138.512 C 263.878 140.04 265.342 141.072 266.87 140.812 L 286.448 140.812 C 288.96 140.812 288.96 140.812 289.07 143.221 L 289.07 161.161 C 289.07 162.909 288.416 163.35 286.66 163.35 L 271.564 163.35 C 270.036 163.35 269.595 163.35 269.705 165.319 C 270.304 171.981 270.304 178.667 269.705 185.33 C 269.705 187.188 269.705 187.409 271.792 187.409 L 289.062 187.409 C 289.826 188.393 289.062 189.377 289.062 190.37 C 289.172 191.637 289.172 192.921 289.062 194.189 L 289.062 207.427 C 289.062 209.286 288.519 209.837 286.873 209.837 L 266.201 209.837 C 264.76 209.561 263.358 210.483 263.027 211.916 C 258.105 224.713 250.23 236.187 240.056 245.385 C 236.339 248.732 232.433 251.882 228.353 254.788 C 223.975 257.308 219.714 259.93 215.225 262.009 C 206.965 265.726 198.302 268.467 189.411 270.207 C 180.969 271.719 172.409 272.404 163.817 272.286 L 87.909 272.286 L 87.909 272.176 L 87.941 272.152 Z " fill="rgb(254,254,253)"/></g></g></svg>
